X:1
T:Varje själ, som längtan bränner
T:W. Peterson-Berger (1867-1942)
T:Varje själ, som längtan bränner
T:©PA Aglert Edition may be freely distributed, duplicated, performed and recorded
T:©PA Aglert Edition may be freely distributed, duplicated, performed and recorded
T:©PA Aglert Edition may be freely distributed, duplicated, performed and recorded
T:©PA Aglert Edition may be freely distributed, duplicated, performed and recorded
C:W. Peterson-Berger (1867-1942)
Z:©PA Aglert
Z:Edition may be freely distributed, duplicated, performed and recorded
%%score [ 1 2 3 4 ]
L:1/8
Q:1/4=60
M:4/4
K:C
V:1 treble nm="S"
V:2 treble nm="A"
V:3 treble-8 nm="T"
V:4 bass nm="B"
V:1
"^Lento"!p! AA |!<(! ^G2 A2!<)! c2 A2 |!f!!>(! e4!>)! E2!p! E^F |!<(! !courtesy!=G3!<)! G A2 c2 | %4
w: Var- je|själ. som läng- tan|brän- ner till vad|ä- delt är och|
!mp!!>(! B6!>)! z2 |!<(! B>B!<)! cB d3 A |!>(! c4!>)! B4 |!p! B>A E^F ^G2 A2 | ^G6 z2 | %9
w: sannt,|bär u- ti sitt djup och|kän- ner|e- vig- he- tens un- der-|pant.|
 z4 z2!mf! EE | e3 B d2 c2 |!>(! (A4 c4)!>)! | B4 z2!mf! FF | d3 B c2 A2 |!>(! F4 A4!>)! | %15
w: Blir vad|själ- viskt är för-|gä- *|tet, blir in-|om dig Guds- be-|lä- tet|
!<(! G>G A!<)!c!f! e3 d | d4 z2!mp! dB | A3 A ^G2 A2 | (D2 E2 c2) B2 | AAAA B2 A2 | ^G6 z2 | %21
w: här- li- ga- re da- nat|ut ge- nom|släk- te ef- ter|släk- * * te|här- li- ga- re da- nat|ut,|
!pp! FFFF !courtesy!=G2 F2 | !fermata!E6!p! AA | ^G2!<(! A2!<)! c2 A2 |!f!!>(! e4!>)! E2!p! E^F | %25
w: här- li- ga- re da- nat|ut. skall hur|långt än ök- nen|räck- te, ja, hur|
!<(! !courtesy!=G3 A!<)! B2 G2 |!f!!>(! d4!>)! D2!p! DE |!<(! F3 F!<)! G2 _B2 |!mp! A6!ff! A2 | %29
w: långt än ök- nen|räck- te, du Jor-|da- nen nå till|slut, Jor-|
 e4 E4 | B6 A2 | !fermata!A8 |] %32
w: da- nen|nå till|slut!|
V:2
!p! EE |!<(! E2 E2!<)! A2 A2 |!f!!>(! A4!>)! ^G2!p! E^F |!<(! !courtesy!=G3!<)! G A2 G2 | %4
w: Var- je|själ. som läng- tan|brän- ner till vad|ä- delt är och|
!mp!!>(! G6!>)! z2 |!<(! A>A!<)! AA A3 A |!>(! ^G4!>)! G4 |!p! E>E EE E2 [^D^F]2 | E6 z2 | %9
w: sannt,|bär u- ti sitt djup och|kän- ner|e- vig- he- tens un- der-|pant.|
 z4 z2!mf! EE | E3 E E2 A2 |!>(! (^F4 A4)!>)! | ^G4 z2!mf! FF | F3 F F2 F2 |!>(! D4 F4!>)! | %15
w: Blir vad|själ- viskt är för-|gä- *|tet, blir in-|om dig Guds- be-|lä- tet|
!<(! E>E E!<)!G!f! ^F3 F | G2 D2!>(! (G2!>)! !courtesy!=F2) | z8 | z2!mp! GE ^D3 D | E2 E2 F4 | %20
w: här- li- ga- re da- nat,|da- nat ut _||ge- nom släk- te|ef- ter släk-|
 E6 z2 |!pp! FFFF !courtesy!=G2 F2 | !fermata!E6!p! EE | E2!<(! E2!<)! A2 A2 | %24
w: te|här- li- ga- re da- nat|ut, skall hur|långt än ök- nen|
!f!!>(! A4!>)! E2!p! E^F |!<(! !courtesy!=G3 G!<)! G2 G2 |!f!!>(! G4!>)! ^F2!p! DE | %27
w: räck- te, ja, hur|långt än ök- nen|räck- te, du Jor-|
!<(! !courtesy!=F3 F!<)! G2 F2 |!mp! F6!ff! F2 | A4 A4 | E6 E2 | !fermata!E8 |] %32
w: da- nen nå till|slut, Jor-|da- nen|nå till|slut!|
V:3
!p! cc |!<(! d2 c2!<)! e2 e2 |!f!!>(! B4!>)! B2!p! ee |!<(! e3!<)! e e2 e2 |!mp!!>(! d6!>)! z2 | %5
w: Var- je|själ. som läng- tan|brän- ner till vad|ä- delt är och|sannt,|
!<(! ^d>d!<)! dd =d3 d |!>(! d4!>)! d4 |!p! d>c cc B2 B2 | B6 z2 | z4 z2!mf! cc | B3 B A2 e2 | %11
w: bär u- ti sitt djup och|kän- ner|e- vig- he- tens un- der-|pant.|Blir vad|själ- viskt är för-|
!>(! e8!>)! | d4 z2!mf! dd | B3 B A2 c2 |!>(! c4 c4!>)! |!<(! c2!<)! c2!f! c3 c | B4 z4 | %17
w: gä-|tet, blir in-|om dig Guds- be-|lä- tet|da- nat, da- nat|ut|
 z2!mp! fd c3 c |!<(! B2!<)! c2 (A2 G2 | c4 B4) | B6 z2 |!pp! FFFF G2 F2 | !fermata!E6!p! cc | %23
w: ge- nom släk- te|ef- ter släk- *||te|här- li- ga- re da- nat|ut, skall hur|
 d2!<(! c2!<)! e2 e2 |!f!!>(! B4!>)! B2!p! cd |!<(! e3 e!<)! d2 d2 |!f!!>(! A4!>)! A2!p! dd | %27
w: långt än ök- nen|räck- te, ja, hur|långt än ök- nen|räck- te, du Jor-|
!<(! d3 d!<)! d2 d2 |!mp! c6!ff! c2 | ^c4 c4 | d6 d2 | !fermata!^c8 |] %32
w: da- nen nå till|slut, Jor-|da- nen|nå till|slut!|
V:4
!p! A,A, |!<(! B,2 A,2!<)! A,,2 C,2 |!f!!>(! E,4!>)! E,2!p! E,E, |!<(! C,3!<)! C, C,2 C,2 | %4
w: Var- je|själ. som läng- tan|brän- ner till vad|ä- delt är och|
!mp!!>(! G,6!>)! z2 |!<(! ^F,>F,!<)! F,F, =F,3 F, |!>(! E,4!>)! E,4 |!p! A,>A, A,A, B,2 B,,2 | %8
w: sannt,|bär u- ti sitt djup och|kän- ner|e- vig- he- tens un- der-|
 E,6!mf! E,E, | D,3 C, B,,2 A,,2 | ^G,,4 A,,4 | z4 z2 E,E, | F,3 D, B,,2 A,,2 | !courtesy!=G,,8 | %14
w: pant. Blir vad|själ- viskt är för-|gä- tet,|blir in-|om dig Guds- be-|lä-|
!>(! C,8!>)! |!<(! C,2!<)! A,,2!f! D,3 D, | G,,2 B,,2!>(! (E,2!>)! D,2) | z4 z2!mp! CA, | %18
w: tet|här- li- ga- re|da- nat ut _|ge- nom|
 G,3 G, ^F,2 G,2 | (C,4 D,4) | E,6 z2 |!pp! [F,,F,][F,,F,][F,,F,][F,,F,] [G,,G,]2 [F,,F,]2 | %22
w: släk- te ef- ter|släk- *|te|här- li- ga- re da- nat|
 !fermata![E,,E,]6!p! A,A, | B,2!<(! A,2!<)! A,,2 C,2 |!f!!>(! E,4!>)! E,2!p! E,E, | %25
w: ut, skall hur|långt än ök- nen|räck- te, ja, hur|
!<(! C,3 C,!<)! G,,2 B,,2 |!f!!>(! D,4!>)! D,2!p! D,D, |!<(! _B,,3 _B,!<)! B,2 B,2 | %28
w: långt än ök- nen|räck- te, du Jor-|da- nen nå till|
!mp! F,6!ff! F,2 | E,4 E,4 | E,6 E,2 | !fermata![A,,A,]8 |] %32
w: slut, Jor-|da- nen|nå till|slut!|

